packages/kaspersky-hexa-ui-icons/src/iconsSVGs/24/ConnectionWifi3.svg

<svg width="24" height="24" viewBox="0 0 24 24" fill="none" xmlns="http://www.w3.org/2000/svg">
<circle cx="12.0003" cy="18.1178" r="2.0774" fill="black"/>
<path d="M5.84926 12.5578C7.39315 10.9246 9.57689 9.90759 11.9998 9.90759C14.4227 9.90759 16.6064 10.9246 18.1503 12.5578C18.5297 12.9591 19.1626 12.9769 19.564 12.5975C19.9653 12.2181 19.9831 11.5852 19.6037 11.1838C17.6978 9.16767 14.9951 7.90759 11.9998 7.90759C9.00445 7.90759 6.30179 9.16767 4.39587 11.1838C4.01647 11.5852 4.03426 12.2181 4.4356 12.5975C4.83694 12.9769 5.46986 12.9591 5.84926 12.5578Z" fill="black"/>
<path d="M12 13.9991C10.6183 13.9991 9.38676 14.6391 8.58422 15.6427C8.2393 16.074 7.61002 16.1441 7.17869 15.7992C6.74736 15.4542 6.67731 14.825 7.02223 14.3936C8.18798 12.9358 9.98491 11.9991 12 11.9991C14.015 11.9991 15.8119 12.9358 16.9777 14.3936C17.3226 14.825 17.2526 15.4542 16.8212 15.7992C16.3899 16.1441 15.7606 16.074 15.4157 15.6427C14.6131 14.6391 13.3816 13.9991 12 13.9991Z" fill="black"/>
<path d="M14.0773 18.1178C14.0773 19.2651 13.1472 20.1952 11.9999 20.1952C10.8526 20.1952 9.92249 19.2651 9.92249 18.1178C9.92249 16.9705 10.8526 16.0404 11.9999 16.0404C13.1472 16.0404 14.0773 16.9705 14.0773 18.1178Z" fill="black"/>
<g opacity="0.2">
<path d="M3.28455 9.31886C5.54474 7.14184 8.61528 5.80469 12.0002 5.80469C15.3851 5.80469 18.4557 7.14184 20.7159 9.31886C21.1136 9.702 21.7467 9.69014 22.1298 9.29236C22.513 8.89459 22.5011 8.26154 22.1033 7.8784C19.4854 5.35685 15.923 3.80469 12.0002 3.80469C8.07736 3.80469 4.51496 5.35685 1.89709 7.8784C1.49932 8.26154 1.48745 8.89459 1.87059 9.29236C2.25373 9.69014 2.88678 9.702 3.28455 9.31886Z" fill="black"/>
<path d="M12.0002 9.90759C9.57732 9.90759 7.39357 10.9246 5.84968 12.5578C5.47028 12.9591 4.83737 12.9769 4.43603 12.5975C4.03468 12.2181 4.01689 11.5852 4.39629 11.1838C6.30222 9.16767 9.00487 7.90759 12.0002 7.90759C14.9956 7.90759 17.6982 9.16767 19.6041 11.1838C19.9835 11.5852 19.9657 12.2181 19.5644 12.5975C19.1631 12.9769 18.5301 12.9591 18.1507 12.5578C16.6069 10.9246 14.4231 9.90759 12.0002 9.90759Z" fill="black"/>
<path d="M12.0004 13.9991C10.6187 13.9991 9.38719 14.6391 8.58465 15.6427C8.23973 16.074 7.61045 16.1441 7.17912 15.7992C6.74778 15.4542 6.67773 14.825 7.02265 14.3936C8.18841 12.9358 9.98534 11.9991 12.0004 11.9991C14.0154 11.9991 15.8124 12.9358 16.9781 14.3936C17.323 14.825 17.253 15.4542 16.8216 15.7992C16.3903 16.1441 15.761 16.074 15.4161 15.6427C14.6136 14.6391 13.382 13.9991 12.0004 13.9991Z" fill="black"/>
</g>
</svg>

<svg xmlns="http://www.w3.org/2000/svg" width="24" height="24" fill="none" viewBox="0 0 24 24"><g fill="#000"><circle cx="12" cy="18" r="2"/><path fill-rule="evenodd" d="M5.849 12.5578c1.544-1.6332 3.7277-2.6501 6.1505-2.6501s4.6067 1.0169 6.1506 2.6501c.3794.4014 1.0123.4192 1.4136.0398s.4192-1.0124.0398-1.4137c-1.906-2.0162-4.6086-3.2762-7.604-3.2762-2.9953 0-5.698 1.26-7.6039 3.2762-.3794.4013-.3616 1.0343.0397 1.4137s1.0343.3616 1.4137-.0398m2.735 3.085c.8025-1.0036 2.0341-1.6436 3.4157-1.6436s2.6132.64 3.4157 1.6436c.345.4313.9742.5014 1.4056.1564s.5014-.9742.1564-1.4055c-1.1657-1.4578-2.9626-2.3945-4.9777-2.3945s-3.812.9367-4.9777 2.3945c-.345.4313-.2749 1.0606.1564 1.4055s1.0607.2749 1.4056-.1564m5.493 2.4751c0 1.1473-.93 2.0774-2.0774 2.0774s-2.0774-.9301-2.0774-2.0774.9301-2.0774 2.0774-2.0774 2.0774.9301 2.0774 2.0774"/></g></svg>
